symbols/web/screen_rotation_alt/materialsymbolsrounded/screen_rotation_alt_wght200_24px.svg

<svg xmlns="http://www.w3.org/2000/svg" height="24" width="24"><path d="M12.45 20.25 6.375 14.2q-.175-.175-.175-.363 0-.187.175-.362.15-.15.35-.15.2 0 .35.15l6.075 6.075q.175.2.45.188.275-.013.45-.188l5.3-5.3h-2.8q-.225 0-.362-.15-.138-.15-.138-.35 0-.225.138-.363.137-.137.362-.137h3.675q.35 0 .587.238.238.237.238.562v3.7q0 .225-.15.363-.15.137-.35.137-.225 0-.362-.137-.138-.138-.138-.363v-2.8l-5.325 5.3q-.45.45-1.137.45-.688 0-1.138-.45Zm-5-9.525H3.775q-.35 0-.587-.225-.238-.225-.238-.575v-3.7q0-.2.15-.35.15-.15.35-.15.225 0 .362.15.138.15.138.35V9.05l5.325-5.325q.45-.45 1.138-.45.687 0 1.137.45L17.625 9.8q.175.15.175.337 0 .188-.175.363-.15.175-.35.175-.2 0-.35-.175L10.85 4.425q-.175-.2-.45-.188-.275.013-.45.188l-5.3 5.3h2.8q.225 0 .362.15.138.15.138.35 0 .225-.138.362-.137.138-.362.138Z"/></svg>

<svg xmlns="http://www.w3.org/2000/svg" height="24" width="24"><path d="M12.45 20.25 6.375 14.2Q6.2 14.025 6.2 13.837Q6.2 13.65 6.375 13.475Q6.525 13.325 6.725 13.325Q6.925 13.325 7.075 13.475L13.15 19.55Q13.325 19.75 13.6 19.738Q13.875 19.725 14.05 19.55L19.35 14.25H16.55Q16.325 14.25 16.188 14.1Q16.05 13.95 16.05 13.75Q16.05 13.525 16.188 13.387Q16.325 13.25 16.55 13.25H20.225Q20.575 13.25 20.812 13.488Q21.05 13.725 21.05 14.05V17.75Q21.05 17.975 20.9 18.113Q20.75 18.25 20.55 18.25Q20.325 18.25 20.188 18.113Q20.05 17.975 20.05 17.75V14.95L14.725 20.25Q14.275 20.7 13.588 20.7Q12.9 20.7 12.45 20.25ZM7.45 10.725H3.775Q3.425 10.725 3.188 10.5Q2.95 10.275 2.95 9.925V6.225Q2.95 6.025 3.1 5.875Q3.25 5.725 3.45 5.725Q3.675 5.725 3.812 5.875Q3.95 6.025 3.95 6.225V9.05L9.275 3.725Q9.725 3.275 10.413 3.275Q11.1 3.275 11.55 3.725L17.625 9.8Q17.8 9.95 17.8 10.137Q17.8 10.325 17.625 10.5Q17.475 10.675 17.275 10.675Q17.075 10.675 16.925 10.5L10.85 4.425Q10.675 4.225 10.4 4.237Q10.125 4.25 9.95 4.425L4.65 9.725H7.45Q7.675 9.725 7.812 9.875Q7.95 10.025 7.95 10.225Q7.95 10.45 7.812 10.587Q7.675 10.725 7.45 10.725Z"/></svg>
